chains/milkywaytestnet/logo.svg

<svg width="441" height="369" viewBox="0 0 441 369" fill="none" xmlns="http://www.w3.org/2000/svg">
<path d="M303.514 0.187012C312.222 23.7201 330.777 42.2745 354.31 50.9826C330.777 59.6906 312.222 78.245 303.514 101.778C294.805 78.245 276.251 59.6906 252.717 50.9826C276.251 42.2745 294.805 23.7201 303.514 0.187012Z" fill="#3F3F3F"/>
<path fill-rule="evenodd" clip-rule="evenodd" d="M228.258 64.1417L135.82 188.298C106.219 228.057 106.411 281.383 134.276 320.611C104.574 322.84 83.0407 317.142 76.4029 302.908C71.3327 292.035 75.6643 277.706 87.2627 262.043C86.7032 250.378 87.6731 238.643 90.1912 227.128C26.4569 271.438 -9.6657 317.433 3.19738 345.018C16.9113 374.427 82.4481 374.635 164.501 349.829C209.102 379.339 270.012 374.629 309.407 335.699C316.979 328.216 323.292 319.914 328.325 311.064L254.172 315.256C286.834 300.026 316.709 283.208 342.528 265.995C411.683 219.892 451.735 170.96 438.293 142.134C424.843 113.29 361.541 112.536 281.7 135.921L228.258 64.1417ZM292.45 150.359L320.696 188.298C329.953 200.731 336.296 214.491 339.791 228.731C365.979 204.654 378.712 181.324 371.288 165.403C363.174 148.002 332.796 143.357 292.45 150.359Z" fill="#3F3F3F"/>
</svg>

<svg xmlns="http://www.w3.org/2000/svg" width="441" height="369" fill="none" viewBox="0 0 441 369"><path fill="#3F3F3F" d="M303.514.187a85.98 85.98 0 0 0 50.796 50.796 85.98 85.98 0 0 0-50.796 50.795 85.98 85.98 0 0 0-50.797-50.795A85.98 85.98 0 0 0 303.514.187"/><path fill="#3F3F3F" fill-rule="evenodd" d="M228.258 64.142 135.82 188.298c-29.601 39.759-29.409 93.085-1.544 132.313-29.702 2.229-51.235-3.469-57.873-17.703-5.07-10.873-.739-25.202 10.86-40.865-.56-11.665.41-23.4 2.928-34.915-63.734 44.31-99.857 90.305-86.994 117.89 13.714 29.409 79.251 29.617 161.304 4.811 44.601 29.51 105.511 24.8 144.906-14.13a113.5 113.5 0 0 0 18.918-24.635l-74.153 4.192c32.662-15.23 62.537-32.048 88.356-49.261 69.155-46.103 109.207-95.035 95.765-123.861-13.45-28.844-76.752-29.598-156.593-6.213zm64.192 86.217 28.246 37.939c9.257 12.433 15.6 26.193 19.095 40.433 26.188-24.077 38.921-47.407 31.497-63.328-8.114-17.401-38.492-22.046-78.838-15.044" clip-rule="evenodd"/></svg>
